X: 1560
T: Angry Peeler, The
R: jig
M: 6/8
K: Gmajor
|:A|B2 A G2 G|[B,B]DD EDB|DEG AGE|ABA ABc|
B2 A GED|[B,B]DD EDB|DE/F/G AGE|GAF G2:|
|:A|B^AB d2 B|deB dBA|G2 B AGE|
[1 ABA A^GA|B^AB d2 B|deB dBA|G2 B AGE|GAF G2:|
[2 ABA AGc|B2 A G2 D|BD/D/D EDB|DE/F/G AGE|GAF G2||

